apps/site/public/icons/technologies/solid-start.svg

<svg width="48" height="48" viewBox="0 0 48 48" fill="none" xmlns="http://www.w3.org/2000/svg">
<g clip-path="url(#clip0_6109_39558)">
<path d="M22.4121 41.3826L29.2797 40.8472C29.2797 40.8472 31.6284 40.4647 33.0071 38.1957L28.1564 37.0229L22.4121 41.3826Z" fill="url(#paint0_linear_6109_39558)"/>
<path d="M12.9151 25.2951C10.8727 25.3972 7.09424 25.7541 7.09424 25.7541L23.561 37.7114L27.3138 38.6547L33.007 38.2212L16.4382 26.2385C16.4382 26.2385 15.1106 25.2951 13.1959 25.2951C13.0937 25.2951 13.0172 25.2951 12.9151 25.2951Z" fill="url(#paint1_linear_6109_39558)"/>
<path d="M34.1558 22.9241L41.2275 22.4907C41.2275 22.4907 43.6529 22.1338 45.0315 19.8902L40.0021 18.641L34.1558 22.9241Z" fill="url(#paint2_linear_6109_39558)"/>
<path d="M24.1484 6.60724C22.0294 6.68372 18.1489 6.98966 18.1489 6.98966L35.3049 19.2273L39.1855 20.2216L45.0572 19.8648L27.7991 7.60155C27.7991 7.60155 26.3695 6.60724 24.3526 6.60724C24.3016 6.60724 24.225 6.60724 24.1484 6.60724Z" fill="url(#paint3_linear_6109_39558)"/>
<path d="M3.00941 28.4056C2.98389 28.4311 2.98389 28.4566 2.98389 28.482L7.50266 31.7454L19.4761 40.4138C22.0035 42.2239 25.4246 41.4591 27.1607 38.6547L18.021 32.0768L10.5917 26.6719C9.67272 26.0091 8.6515 25.7031 7.63031 25.7031C5.84322 25.7031 4.08167 26.6464 3.00941 28.4056Z" fill="url(#paint4_linear_6109_39558)"/>
<path d="M14.1404 9.61565C14.1404 9.64114 14.1148 9.66667 14.0894 9.69211L18.7867 13.032L23.4842 16.3464L31.2964 21.9043C33.9259 23.7655 37.449 23.026 39.1851 20.2471L34.4366 16.8563L29.688 13.4909L21.927 7.95846C20.9568 7.2701 19.859 6.93866 18.7867 6.93866C16.9742 6.96416 15.2127 7.88198 14.1404 9.61565Z" fill="url(#paint5_linear_6109_39558)"/>
<path d="M10.8218 13.3889L16.8723 20.0177C17.1532 20.4001 17.4595 20.757 17.8169 21.0629L29.6117 34.0145L35.4835 33.6575C37.2196 30.8785 36.5048 27.1054 33.8752 25.2442L26.063 19.6862L21.3911 16.3719L16.6936 13.032L10.8218 13.3889Z" fill="url(#paint6_linear_6109_39558)"/>
<path d="M10.7704 13.4654C9.05991 16.2189 9.77469 19.9413 12.3533 21.7768L20.0887 27.2839L24.8628 30.6491L29.6114 34.0145C31.3474 31.2356 30.6325 27.4622 28.003 25.6011L10.8215 13.3889C10.8215 13.4145 10.7958 13.44 10.7704 13.4654Z" fill="url(#paint7_linear_6109_39558)"/>
</g>
<defs>
<linearGradient id="paint0_linear_6109_39558" x1="34.5583" y1="5.47382" x2="25.5242" y2="50.0633" gradientUnits="userSpaceOnUse">
<stop stop-color="#1593F5"/>
<stop offset="1" stop-color="#0084CE"/>
</linearGradient>
<linearGradient id="paint1_linear_6109_39558" x1="33.672" y1="53.7681" x2="-4.20731" y2="-7.00738" gradientUnits="userSpaceOnUse">
<stop stop-color="#1593F5"/>
<stop offset="1" stop-color="#0084CE"/>
</linearGradient>
<linearGradient id="paint2_linear_6109_39558" x1="58.6083" y1="54.7909" x2="35.7973" y2="13.8477" gradientUnits="userSpaceOnUse">
<stop stop-color="white"/>
<stop offset="1" stop-color="#15ABFF"/>
</linearGradient>
<linearGradient id="paint3_linear_6109_39558" x1="18.1502" y1="-17.318" x2="37.514" y2="27.0639" gradientUnits="userSpaceOnUse">
<stop stop-color="white"/>
<stop offset="1" stop-color="#79CFFF"/>
</linearGradient>
<linearGradient id="paint4_linear_6109_39558" x1="39.945" y1="-0.435275" x2="9.16278" y2="42.2441" gradientUnits="userSpaceOnUse">
<stop stop-color="#0057E5"/>
<stop offset="1" stop-color="#0084CE"/>
</linearGradient>
<linearGradient id="paint5_linear_6109_39558" x1="32.9658" y1="-2.0477" x2="23.2852" y2="24.6644" gradientUnits="userSpaceOnUse">
<stop stop-color="white"/>
<stop offset="1" stop-color="#15ABFF"/>
</linearGradient>
<linearGradient id="paint6_linear_6109_39558" x1="45.0577" y1="51.2288" x2="-3.59406" y2="-13.0098" gradientUnits="userSpaceOnUse">
<stop stop-color="white"/>
<stop offset="1" stop-color="#79CFFF"/>
</linearGradient>
<linearGradient id="paint7_linear_6109_39558" x1="36.5692" y1="-8.53191" x2="11.6085" y2="40.811" gradientUnits="userSpaceOnUse">
<stop stop-color="white"/>
<stop offset="1" stop-color="#79CFFF"/>
</linearGradient>
<clipPath id="clip0_6109_39558">
<rect width="42" height="37" fill="white" transform="translate(3 5.5)"/>
</clipPath>
</defs>
</svg>

<svg xmlns="http://www.w3.org/2000/svg" width="48" height="48" fill="none" viewBox="0 0 48 48"><g clip-path="url(#a)"><path fill="url(#b)" d="m22.412 41.383 6.868-.536s2.348-.382 3.727-2.651l-4.85-1.173z"/><path fill="url(#c)" d="M12.915 25.295c-2.042.102-5.82.46-5.82.46L23.56 37.71l3.753.944 5.693-.434-16.568-11.98s-1.327-.944-3.242-.944z"/><path fill="url(#d)" d="m34.156 22.924 7.072-.433s2.425-.357 3.803-2.6l-5.029-1.25z"/><path fill="url(#e)" d="M24.148 6.607c-2.119.077-6 .383-6 .383l17.157 12.237 3.88.995 5.872-.357L27.8 7.602s-1.43-.995-3.446-.995z"/><path fill="url(#f)" d="M3.01 28.406c-.026.025-.026.05-.026.076l4.519 3.263 11.973 8.669c2.528 1.81 5.949 1.045 7.685-1.76l-9.14-6.577-7.43-5.405a5 5 0 0 0-2.96-.969c-1.788 0-3.55.943-4.622 2.703"/><path fill="url(#g)" d="M14.14 9.616c0 .025-.025.05-.05.076l4.697 3.34 4.697 3.314 7.812 5.558c2.63 1.861 6.153 1.122 7.89-1.657l-4.75-3.39-4.748-3.366-7.761-5.533a5.42 5.42 0 0 0-3.14-1.02c-1.813.026-3.574.944-4.647 2.678"/><path fill="url(#h)" d="m10.822 13.389 6.05 6.629c.281.382.587.739.945 1.045l11.795 12.952 5.872-.358c1.736-2.778 1.02-6.552-1.609-8.413l-7.812-5.558-4.672-3.314-4.697-3.34z"/><path fill="url(#i)" d="M10.77 13.465c-1.71 2.754-.995 6.476 1.583 8.312l7.736 5.507 4.774 3.365 4.748 3.365c1.736-2.778 1.021-6.552-1.608-8.413L10.822 13.39c0 .026-.026.051-.052.076"/></g><defs><linearGradient id="b" x1="34.558" x2="25.524" y1="5.474" y2="50.063" gradientUnits="userSpaceOnUse"><stop stop-color="#1593f5"/><stop offset="1" stop-color="#0084ce"/></linearGradient><linearGradient id="c" x1="33.672" x2="-4.207" y1="53.768" y2="-7.007" gradientUnits="userSpaceOnUse"><stop stop-color="#1593f5"/><stop offset="1" stop-color="#0084ce"/></linearGradient><linearGradient id="d" x1="58.608" x2="35.797" y1="54.791" y2="13.848" gradientUnits="userSpaceOnUse"><stop stop-color="#fff"/><stop offset="1" stop-color="#15abff"/></linearGradient><linearGradient id="e" x1="18.15" x2="37.514" y1="-17.318" y2="27.064" gradientUnits="userSpaceOnUse"><stop stop-color="#fff"/><stop offset="1" stop-color="#79cfff"/></linearGradient><linearGradient id="f" x1="39.945" x2="9.163" y1="-.435" y2="42.244" gradientUnits="userSpaceOnUse"><stop stop-color="#0057e5"/><stop offset="1" stop-color="#0084ce"/></linearGradient><linearGradient id="g" x1="32.966" x2="23.285" y1="-2.048" y2="24.664" gradientUnits="userSpaceOnUse"><stop stop-color="#fff"/><stop offset="1" stop-color="#15abff"/></linearGradient><linearGradient id="h" x1="45.058" x2="-3.594" y1="51.229" y2="-13.01" gradientUnits="userSpaceOnUse"><stop stop-color="#fff"/><stop offset="1" stop-color="#79cfff"/></linearGradient><linearGradient id="i" x1="36.569" x2="11.608" y1="-8.532" y2="40.811" gradientUnits="userSpaceOnUse"><stop stop-color="#fff"/><stop offset="1" stop-color="#79cfff"/></linearGradient><clipPath id="a"><path fill="#fff" d="M3 5.5h42v37H3z"/></clipPath></defs></svg>
